X: 33424
T: Quin Abbey
R: slip jig
M: 9/8
K: Eminor
|:EFG ABA GFD|E2G/E/ AFA GBd|EFG ABA GAG|E2G/E/ AFA GFD:|
|:EGE AcA GFD|E2G/E/ AFA GBd|EGE AcA BAB|E2G/E/ AFA GFD:|
|:GBd cAF GFG|G2B/d/ cAF FAd|GBd cAF GBG|G2B/d/ cAF FDF:|
|:EFG A3 BdB|G2A/B/ FGA FDF|EFG A3 AFA|G2A/B/ FGA GFD:|

